{
  "type": "map",
  "version": "1.10",
  "orientation": "orthogonal",
  "width": 20,
  "height": 13,
  "tilewidth": 48,
  "tileheight": 48,
  "infinite": false,
  "tilesets": [
    {
      "firstgid": 1,
      "name": "teimas.optimized",
      "image": "teimas.optimized.webp",
      "imagewidth": 480,
      "imageheight": 432,
      "tilewidth": 48,
      "tileheight": 48,
      "tilecount": 83,
      "columns": 10,
      "margin": 0,
      "spacing": 0
    }
  ],
  "layers": [
    {
      "type": "tilelayer",
      "name": "Capa de patrones 2",
      "width": 20,
      "height": 13,
      "data": [
        50,
        51,
        51,
        51,
        51,
        51,
        51,
        51,
        51,
        51,
        51,
        51,
        51,
        51,
        51,
        51,
        51,
        51,
        51,
        52,
        53,
        54,
        54,
        54,
        54,
        54,
        54,
        54,
        54,
        54,
        54,
        54,
        54,
        54,
        54,
        54,
        54,
        54,
        54,
        54,
        53,
        54,
        54,
        54,
        54,
        54,
        54,
        54,
        54,
        55,
        55,
        55,
        54,
        54,
        55,
        54,
        54,
        54,
        54,
        54,
        53,
        54,
        54,
        54,
        54,
        54,
        54,
        54,
        54,
        54,
        54,
        54,
        55,
        54,
        54,
        54,
        54,
        54,
        54,
        54,
        53,
        54,
        54,
        54,
        54,
        54,
        54,
        54,
        54,
        54,
        54,
        54,
        54,
        54,
        54,
        54,
        54,
        54,
        54,
        55,
        53,
        54,
        54,
        54,
        54,
        54,
        54,
        54,
        54,
        54,
        54,
        54,
        54,
        54,
        54,
        54,
        54,
        54,
        54,
        55,
        53,
        54,
        54,
        54,
        54,
        54,
        54,
        54,
        54,
        54,
        54,
        54,
        54,
        54,
        54,
        54,
        54,
        54,
        54,
        55,
        53,
        54,
        54,
        54,
        54,
        54,
        54,
        54,
        54,
        54,
        54,
        54,
        54,
        54,
        54,
        54,
        54,
        54,
        54,
        1,
        53,
        54,
        54,
        54,
        54,
        54,
        54,
        54,
        54,
        54,
        54,
        54,
        54,
        54,
        54,
        54,
        54,
        54,
        54,
        1,
        53,
        54,
        54,
        54,
        54,
        54,
        54,
        54,
        54,
        54,
        54,
        54,
        54,
        54,
        54,
        54,
        55,
        54,
        54,
        55,
        53,
        54,
        54,
        54,
        54,
        54,
        54,
        54,
        54,
        54,
        54,
        54,
        54,
        54,
        54,
        54,
        55,
        54,
        54,
        54,
        53,
        54,
        54,
        54,
        54,
        54,
        54,
        54,
        54,
        54,
        55,
        54,
        54,
        54,
        54,
        54,
        55,
        54,
        54,
        54,
        53,
        54,
        54,
        54,
        54,
        54,
        54,
        54,
        54,
        54,
        54,
        54,
        54,
        54,
        54,
        54,
        54,
        54,
        54,
        54
      ],
      "id": 2,
      "opacity": 1,
      "visible": true,
      "x": 0,
      "y": 0
    },
    {
      "type": "tilelayer",
      "name": "Capa de patrones 5",
      "width": 20,
      "height": 13,
      "data": [
        0,
        0,
        3,
        0,
        0,
        3,
        0,
        0,
        0,
        0,
        3,
        0,
        0,
        3,
        0,
        0,
        3,
        0,
        0,
        0,
        0,
        0,
        6,
        0,
        0,
        6,
        0,
        0,
        0,
        0,
        6,
        0,
        0,
        6,
        0,
        0,
        6,
        0,
        0,
        0,
        0,
        0,
        0,
        0,
        0,
        0,
        0,
        0,
        0,
        0,
        0,
        0,
        0,
        0,
        0,
        0,
        0,
        0,
        0,
        0,
        0,
        0,
        0,
        0,
        0,
        0,
        0,
        0,
        0,
        0,
        0,
        0,
        0,
        0,
        0,
        0,
        0,
        0,
        0,
        0,
        0,
        0,
        0,
        0,
        0,
        0,
        0,
        0,
        0,
        0,
        0,
        0,
        0,
        0,
        0,
        0,
        0,
        0,
        0,
        0,
        0,
        0,
        0,
        0,
        0,
        0,
        0,
        0,
        0,
        0,
        0,
        0,
        0,
        0,
        0,
        0,
        0,
        0,
        0,
        0,
        0,
        0,
        3,
        0,
        0,
        3,
        0,
        0,
        0,
        0,
        3,
        0,
        0,
        3,
        0,
        0,
        3,
        0,
        0,
        0,
        0,
        0,
        6,
        0,
        0,
        6,
        0,
        0,
        0,
        0,
        6,
        0,
        0,
        6,
        0,
        0,
        6,
        0,
        0,
        0,
        0,
        0,
        0,
        0,
        0,
        0,
        0,
        0,
        0,
        0,
        0,
        0,
        0,
        0,
        0,
        0,
        0,
        0,
        0,
        0,
        0,
        0,
        0,
        0,
        0,
        0,
        0,
        0,
        0,
        0,
        0,
        0,
        0,
        0,
        0,
        0,
        0,
        0,
        0,
        0,
        0,
        0,
        0,
        0,
        0,
        0,
        0,
        0,
        0,
        0,
        0,
        0,
        0,
        0,
        0,
        0,
        0,
        0,
        0,
        0,
        0,
        0,
        0,
        0,
        0,
        0,
        0,
        0,
        0,
        0,
        0,
        0,
        0,
        0,
        0,
        0,
        0,
        0,
        0,
        0,
        0,
        0,
        0,
        0,
        0,
        0,
        0,
        0,
        0,
        0,
        0,
        0,
        0,
        0,
        0,
        0,
        0,
        0,
        0,
        0
      ],
      "id": 3,
      "opacity": 1,
      "visible": true,
      "x": 0,
      "y": 0
    },
    {
      "type": "tilelayer",
      "name": "Capa de patrones 4",
      "width": 20,
      "height": 13,
      "data": [
        0,
        0,
        0,
        0,
        0,
        0,
        0,
        0,
        0,
        0,
        0,
        0,
        0,
        0,
        0,
        0,
        0,
        0,
        0,
        0,
        0,
        28,
        29,
        30,
        28,
        29,
        30,
        0,
        0,
        28,
        29,
        30,
        28,
        29,
        30,
        28,
        29,
        30,
        0,
        0,
        0,
        31,
        32,
        33,
        31,
        32,
        33,
        0,
        0,
        31,
        32,
        33,
        31,
        32,
        33,
        31,
        32,
        33,
        0,
        0,
        0,
        28,
        29,
        30,
        28,
        29,
        30,
        0,
        0,
        28,
        29,
        30,
        28,
        29,
        30,
        28,
        29,
        30,
        0,
        0,
        0,
        31,
        32,
        33,
        31,
        32,
        33,
        0,
        0,
        31,
        32,
        33,
        31,
        32,
        33,
        31,
        32,
        33,
        0,
        0,
        0,
        0,
        0,
        0,
        0,
        0,
        0,
        0,
        0,
        0,
        0,
        0,
        0,
        0,
        0,
        0,
        0,
        0,
        0,
        0,
        0,
        0,
        0,
        0,
        0,
        0,
        0,
        0,
        0,
        0,
        0,
        0,
        0,
        0,
        0,
        0,
        0,
        0,
        0,
        0,
        0,
        28,
        29,
        30,
        28,
        29,
        30,
        0,
        0,
        28,
        29,
        30,
        28,
        29,
        30,
        28,
        29,
        30,
        0,
        0,
        0,
        31,
        32,
        33,
        31,
        32,
        33,
        0,
        0,
        31,
        32,
        33,
        31,
        32,
        33,
        31,
        32,
        33,
        0,
        0,
        0,
        28,
        29,
        30,
        28,
        29,
        30,
        0,
        0,
        28,
        29,
        30,
        28,
        29,
        30,
        28,
        29,
        30,
        0,
        0,
        0,
        31,
        32,
        33,
        31,
        32,
        33,
        0,
        0,
        31,
        32,
        33,
        31,
        32,
        33,
        31,
        32,
        33,
        0,
        0,
        0,
        0,
        0,
        0,
        0,
        0,
        0,
        0,
        0,
        0,
        0,
        0,
        0,
        0,
        0,
        0,
        0,
        0,
        0,
        0,
        0,
        0,
        0,
        0,
        0,
        0,
        0,
        0,
        0,
        0,
        0,
        0,
        0,
        0,
        0,
        0,
        0,
        0,
        0,
        0
      ],
      "id": 4,
      "opacity": 1,
      "visible": true,
      "x": 0,
      "y": 0
    },
    {
      "type": "tilelayer",
      "name": "Capa de patrones 7",
      "width": 20,
      "height": 13,
      "data": [
        0,
        0,
        0,
        0,
        0,
        0,
        0,
        0,
        0,
        0,
        0,
        0,
        0,
        0,
        0,
        0,
        0,
        0,
        0,
        0,
        0,
        0,
        0,
        0,
        0,
        78,
        79,
        0,
        0,
        0,
        0,
        0,
        0,
        0,
        0,
        0,
        0,
        0,
        0,
        0,
        0,
        0,
        0,
        0,
        0,
        80,
        81,
        0,
        0,
        0,
        0,
        0,
        0,
        0,
        0,
        0,
        0,
        0,
        0,
        0,
        0,
        0,
        0,
        0,
        0,
        0,
        0,
        0,
        0,
        0,
        0,
        0,
        0,
        0,
        0,
        0,
        0,
        0,
        0,
        0,
        0,
        0,
        0,
        0,
        0,
        0,
        0,
        0,
        0,
        0,
        0,
        0,
        0,
        0,
        0,
        0,
        0,
        0,
        0,
        0,
        0,
        0,
        0,
        0,
        0,
        0,
        0,
        0,
        0,
        0,
        0,
        0,
        0,
        0,
        0,
        0,
        0,
        0,
        0,
        0,
        0,
        0,
        0,
        0,
        0,
        0,
        0,
        0,
        0,
        0,
        0,
        0,
        0,
        0,
        0,
        0,
        0,
        0,
        0,
        0,
        0,
        82,
        0,
        0,
        0,
        0,
        0,
        0,
        0,
        0,
        0,
        0,
        0,
        0,
        0,
        0,
        0,
        0,
        0,
        0,
        0,
        83,
        0,
        0,
        0,
        0,
        0,
        0,
        0,
        0,
        0,
        0,
        0,
        0,
        0,
        0,
        0,
        0,
        0,
        0,
        0,
        0,
        0,
        0,
        0,
        0,
        0,
        0,
        0,
        0,
        0,
        0,
        0,
        0,
        0,
        0,
        0,
        0,
        0,
        0,
        0,
        0,
        0,
        0,
        0,
        0,
        0,
        0,
        0,
        0,
        0,
        0,
        0,
        0,
        0,
        0,
        0,
        0,
        0,
        0,
        0,
        0,
        0,
        0,
        0,
        0,
        0,
        0,
        0,
        0,
        0,
        0,
        0,
        0,
        0,
        0,
        0,
        0,
        0,
        0,
        0,
        0,
        0,
        0,
        0,
        0,
        0,
        0,
        0,
        0,
        0,
        0,
        0,
        0,
        0,
        0,
        0,
        0,
        0,
        0
      ],
      "id": 8,
      "opacity": 1,
      "visible": true,
      "x": 0,
      "y": 0
    },
    {
      "type": "tilelayer",
      "name": "Capa de patrones 3",
      "width": 20,
      "height": 13,
      "data": [
        0,
        0,
        0,
        0,
        0,
        0,
        0,
        0,
        0,
        0,
        0,
        0,
        0,
        0,
        0,
        0,
        0,
        0,
        0,
        0,
        0,
        0,
        4,
        0,
        0,
        4,
        0,
        0,
        0,
        0,
        4,
        0,
        0,
        4,
        0,
        0,
        4,
        0,
        0,
        43,
        0,
        0,
        7,
        0,
        0,
        7,
        0,
        0,
        0,
        0,
        7,
        0,
        0,
        7,
        0,
        0,
        7,
        0,
        0,
        46,
        0,
        12,
        13,
        14,
        0,
        16,
        0,
        0,
        0,
        17,
        18,
        19,
        34,
        35,
        36,
        17,
        18,
        19,
        0,
        46,
        0,
        20,
        21,
        22,
        0,
        24,
        0,
        0,
        0,
        25,
        26,
        27,
        38,
        39,
        40,
        25,
        26,
        27,
        0,
        46,
        0,
        0,
        0,
        0,
        0,
        0,
        0,
        0,
        0,
        0,
        0,
        0,
        0,
        0,
        0,
        0,
        0,
        0,
        0,
        46,
        0,
        0,
        0,
        0,
        0,
        0,
        0,
        0,
        0,
        0,
        0,
        0,
        0,
        0,
        0,
        0,
        0,
        0,
        0,
        46,
        0,
        0,
        4,
        0,
        0,
        4,
        0,
        0,
        0,
        0,
        4,
        0,
        0,
        4,
        0,
        0,
        4,
        0,
        0,
        46,
        0,
        0,
        7,
        0,
        0,
        7,
        0,
        0,
        0,
        0,
        7,
        0,
        0,
        7,
        0,
        0,
        7,
        0,
        0,
        46,
        0,
        15,
        16,
        0,
        12,
        13,
        14,
        0,
        0,
        0,
        16,
        0,
        12,
        13,
        14,
        0,
        16,
        0,
        0,
        46,
        0,
        23,
        24,
        0,
        20,
        21,
        22,
        0,
        0,
        0,
        24,
        0,
        20,
        21,
        22,
        0,
        24,
        0,
        0,
        46,
        0,
        0,
        0,
        0,
        0,
        0,
        0,
        0,
        0,
        0,
        0,
        0,
        0,
        0,
        0,
        0,
        0,
        0,
        0,
        48,
        0,
        0,
        0,
        0,
        0,
        0,
        0,
        0,
        0,
        0,
        0,
        0,
        0,
        0,
        0,
        0,
        0,
        0,
        0,
        0
      ],
      "id": 5,
      "opacity": 1,
      "visible": true,
      "x": 0,
      "y": 0
    },
    {
      "type": "tilelayer",
      "name": "Capa de patrones 1",
      "width": 20,
      "height": 13,
      "data": [
        0,
        0,
        0,
        0,
        0,
        0,
        0,
        0,
        0,
        0,
        0,
        0,
        0,
        0,
        0,
        0,
        0,
        0,
        0,
        0,
        0,
        0,
        0,
        0,
        0,
        0,
        0,
        0,
        0,
        0,
        0,
        74,
        75,
        0,
        0,
        0,
        0,
        0,
        0,
        0,
        0,
        0,
        0,
        0,
        0,
        0,
        0,
        0,
        0,
        0,
        0,
        76,
        77,
        0,
        0,
        0,
        0,
        0,
        0,
        71,
        0,
        0,
        0,
        0,
        0,
        0,
        0,
        0,
        0,
        0,
        0,
        0,
        0,
        0,
        0,
        0,
        0,
        0,
        0,
        73,
        0,
        0,
        2,
        0,
        0,
        2,
        0,
        0,
        0,
        0,
        2,
        0,
        0,
        2,
        0,
        0,
        2,
        0,
        0,
        37,
        0,
        0,
        5,
        0,
        0,
        5,
        0,
        0,
        0,
        0,
        5,
        0,
        0,
        5,
        0,
        0,
        5,
        0,
        0,
        47,
        0,
        0,
        0,
        0,
        0,
        0,
        0,
        0,
        0,
        0,
        0,
        0,
        0,
        0,
        0,
        0,
        0,
        0,
        0,
        49,
        0,
        0,
        0,
        0,
        0,
        0,
        0,
        0,
        0,
        0,
        0,
        0,
        0,
        0,
        0,
        0,
        0,
        0,
        0,
        42,
        0,
        0,
        0,
        0,
        0,
        0,
        0,
        0,
        0,
        0,
        0,
        0,
        0,
        0,
        0,
        0,
        0,
        0,
        0,
        45,
        0,
        0,
        0,
        0,
        0,
        0,
        0,
        0,
        0,
        0,
        0,
        0,
        0,
        0,
        0,
        0,
        0,
        0,
        0,
        41,
        0,
        0,
        2,
        0,
        0,
        2,
        0,
        0,
        0,
        0,
        2,
        0,
        0,
        2,
        0,
        0,
        2,
        0,
        0,
        44,
        0,
        0,
        5,
        0,
        0,
        5,
        0,
        0,
        0,
        0,
        5,
        0,
        0,
        5,
        0,
        0,
        5,
        0,
        0,
        0,
        0,
        0,
        0,
        0,
        0,
        0,
        0,
        0,
        0,
        0,
        0,
        0,
        0,
        0,
        0,
        0,
        0,
        0,
        0,
        0
      ],
      "id": 1,
      "opacity": 1,
      "visible": true,
      "x": 0,
      "y": 0
    },
    {
      "type": "tilelayer",
      "name": "Capa de patrones 6",
      "width": 20,
      "height": 13,
      "data": [
        0,
        0,
        0,
        0,
        0,
        0,
        0,
        0,
        0,
        0,
        0,
        0,
        0,
        0,
        0,
        0,
        0,
        0,
        0,
        0,
        0,
        66,
        0,
        0,
        0,
        0,
        0,
        0,
        0,
        65,
        0,
        0,
        0,
        0,
        0,
        67,
        0,
        0,
        0,
        0,
        0,
        69,
        0,
        0,
        0,
        0,
        0,
        0,
        0,
        68,
        0,
        0,
        0,
        0,
        0,
        70,
        0,
        0,
        0,
        0,
        0,
        0,
        0,
        0,
        72,
        0,
        0,
        0,
        0,
        0,
        0,
        0,
        0,
        0,
        0,
        0,
        0,
        0,
        0,
        0,
        0,
        0,
        0,
        0,
        0,
        0,
        0,
        0,
        0,
        0,
        0,
        0,
        0,
        0,
        0,
        0,
        0,
        0,
        0,
        0,
        0,
        0,
        0,
        0,
        0,
        0,
        0,
        0,
        0,
        0,
        0,
        0,
        0,
        0,
        0,
        0,
        0,
        0,
        0,
        0,
        0,
        0,
        0,
        0,
        0,
        0,
        0,
        0,
        0,
        0,
        0,
        0,
        0,
        0,
        0,
        0,
        0,
        0,
        0,
        0,
        0,
        0,
        0,
        0,
        58,
        0,
        0,
        0,
        0,
        0,
        0,
        0,
        9,
        0,
        0,
        62,
        0,
        8,
        0,
        0,
        0,
        0,
        0,
        0,
        59,
        0,
        0,
        0,
        0,
        56,
        0,
        0,
        11,
        0,
        0,
        64,
        0,
        10,
        0,
        0,
        0,
        0,
        0,
        0,
        0,
        0,
        0,
        0,
        0,
        0,
        0,
        61,
        0,
        0,
        0,
        63,
        0,
        60,
        0,
        0,
        0,
        0,
        0,
        0,
        0,
        0,
        0,
        0,
        0,
        57,
        0,
        0,
        0,
        0,
        0,
        0,
        0,
        0,
        0,
        0,
        0,
        0,
        0,
        0,
        0,
        0,
        0,
        0,
        0,
        0,
        0,
        0,
        0,
        0,
        0,
        0,
        0,
        0,
        0,
        0,
        0,
        0,
        0,
        0,
        0,
        0,
        0,
        0,
        0,
        0,
        0,
        0,
        0,
        0,
        0,
        0,
        0,
        0,
        0,
        0
      ],
      "id": 7,
      "opacity": 1,
      "visible": true,
      "x": 0,
      "y": 0
    },
    {
      "type": "objectgroup",
      "name": "desks",
      "objects": [
        {
          "id": 1,
          "x": 787.839381425182,
          "y": 59.0457780511379,
          "height": 0,
          "name": "",
          "opacity": 1,
          "point": true,
          "rotation": 0,
          "type": "",
          "visible": true,
          "width": 0
        },
        {
          "id": 2,
          "x": 644.442491872419,
          "y": 53.9847113610403,
          "height": 0,
          "name": "",
          "opacity": 1,
          "point": true,
          "rotation": 0,
          "type": "",
          "visible": true,
          "width": 0
        },
        {
          "id": 3,
          "x": 789.526403655215,
          "y": 258.114401194974,
          "height": 0,
          "name": "",
          "opacity": 1,
          "point": true,
          "rotation": 0,
          "type": "",
          "visible": true,
          "width": 0
        },
        {
          "id": 4,
          "x": 647.816536332484,
          "y": 261.488445655039,
          "height": 0,
          "name": "",
          "opacity": 1,
          "point": true,
          "rotation": 0,
          "type": "",
          "visible": true,
          "width": 0
        },
        {
          "id": 5,
          "x": 792.90044811528,
          "y": 342.4655126966,
          "height": 0,
          "name": "",
          "opacity": 1,
          "point": true,
          "rotation": 0,
          "type": "",
          "visible": true,
          "width": 0
        },
        {
          "id": 6,
          "x": 647.816536332484,
          "y": 340.778490466567,
          "height": 0,
          "name": "",
          "opacity": 1,
          "point": true,
          "rotation": 0,
          "type": "",
          "visible": true,
          "width": 0
        },
        {
          "id": 7,
          "x": 791.213425885247,
          "y": 539.847113610403,
          "height": 0,
          "name": "",
          "opacity": 1,
          "point": true,
          "rotation": 0,
          "type": "",
          "visible": true,
          "width": 0
        },
        {
          "id": 8,
          "x": 649.503558562517,
          "y": 544.908180300501,
          "height": 0,
          "name": "",
          "opacity": 1,
          "point": true,
          "rotation": 0,
          "type": "",
          "visible": true,
          "width": 0
        },
        {
          "id": 9,
          "x": 263.549512345137,
          "y": 548.282224760566,
          "height": 0,
          "name": "",
          "opacity": 1,
          "point": true,
          "rotation": 0,
          "type": "",
          "visible": true,
          "width": 0
        },
        {
          "id": 10,
          "x": 118.152622792374,
          "y": 548.282224760566,
          "height": 0,
          "name": "",
          "opacity": 1,
          "point": true,
          "rotation": 0,
          "type": "",
          "visible": true,
          "width": 0
        },
        {
          "id": 11,
          "x": 262.923556805202,
          "y": 359.335734996925,
          "height": 0,
          "name": "",
          "opacity": 1,
          "point": true,
          "rotation": 0,
          "type": "",
          "visible": true,
          "width": 0
        },
        {
          "id": 12,
          "x": 118.839645022406,
          "y": 357.648712766893,
          "height": 0,
          "name": "",
          "opacity": 1,
          "point": true,
          "rotation": 0,
          "type": "",
          "visible": true,
          "width": 0
        },
        {
          "id": 13,
          "x": 264.549512345137,
          "y": 261.48844565504,
          "height": 0,
          "name": "",
          "opacity": 1,
          "point": true,
          "rotation": 0,
          "type": "",
          "visible": true,
          "width": 0
        },
        {
          "id": 14,
          "x": 122.465600562341,
          "y": 268.236534575169,
          "height": 0,
          "name": "",
          "opacity": 1,
          "point": true,
          "rotation": 0,
          "type": "",
          "visible": true,
          "width": 0
        },
        {
          "id": 15,
          "x": 117.526667252439,
          "y": 70.8549336613655,
          "height": 0,
          "name": "",
          "opacity": 1,
          "point": true,
          "rotation": 0,
          "type": "",
          "visible": true,
          "width": 0
        },
        {
          "id": 16,
          "x": 264.549512345136,
          "y": 68.793866971268,
          "height": 0,
          "name": "",
          "opacity": 1,
          "point": true,
          "rotation": 0,
          "type": "",
          "visible": true,
          "width": 0
        },
        {
          "id": 17,
          "x": 646.129514102452,
          "y": 45.5496002108778,
          "height": 0,
          "name": "",
          "opacity": 1,
          "point": true,
          "rotation": 0,
          "type": "",
          "visible": true,
          "width": 0
        },
        {
          "id": 18,
          "x": 786.15235919515,
          "y": 42.1755557508128,
          "height": 0,
          "name": "",
          "opacity": 1,
          "point": true,
          "rotation": 0,
          "type": "",
          "visible": true,
          "width": 0
        },
        {
          "id": 23,
          "x": 504.419646779721,
          "y": 57.3587558211054,
          "height": 0,
          "name": "",
          "opacity": 1,
          "point": true,
          "rotation": 0,
          "type": "",
          "visible": true,
          "width": 0
        },
        {
          "id": 24,
          "x": 504.419646779721,
          "y": 244.618223354714,
          "height": 0,
          "name": "",
          "opacity": 1,
          "point": true,
          "rotation": 0,
          "type": "",
          "visible": true,
          "width": 0
        },
        {
          "id": 25,
          "x": 504.419646779721,
          "y": 349.21360161673,
          "height": 0,
          "name": "",
          "opacity": 1,
          "point": true,
          "rotation": 0,
          "type": "",
          "visible": true,
          "width": 0
        },
        {
          "id": 26,
          "x": 502.732624549688,
          "y": 534.786046920306,
          "height": 0,
          "name": "",
          "opacity": 1,
          "point": true,
          "rotation": 0,
          "type": "",
          "visible": true,
          "width": 0
        }
      ],
      "draworder": "topdown",
      "id": 6,
      "opacity": 1,
      "visible": true,
      "x": 0,
      "y": 0
    }
  ],
  "compressionlevel": -1,
  "nextlayerid": 9,
  "nextobjectid": 31,
  "renderorder": "right-down",
  "tiledversion": "1.12.1"
}